public/img/calendar.svg

<svg width="20" height="21" viewBox="0 0 20 21" fill="none" xmlns="http://www.w3.org/2000/svg">
<path d="M14.9792 4.34873C15.7576 4.34873 16.388 3.72254 16.388 2.94421V1.47277C16.388 0.693732 15.7576 0.0654297 14.9792 0.0654297C14.2016 0.0654297 13.5733 0.693732 13.5733 1.47277V2.94421C13.5733 3.72254 14.2016 4.34873 14.9792 4.34873Z" fill="white" fill-opacity="0.5"/>
<path d="M19.9796 2.50064H17.1473V3.21699C17.1473 4.39752 16.1872 5.3604 15.0039 5.3604C13.8191 5.3604 12.8619 4.39752 12.8619 3.21699V2.50064H7.14447V3.21699C7.14447 4.39752 6.18441 5.3604 5.00106 5.3604C3.81771 5.3604 2.85905 4.39682 2.85905 3.21629V2.50064L1.59539e-09 2.46472V20.3572H1.42918H18.5736L20 20.353L19.9796 2.50064ZM18.5736 18.9323H1.42918V7.5017H18.5736V18.9323Z" fill="white" fill-opacity="0.5"/>
<path d="M4.97838 4.34873C5.75671 4.34873 6.38572 3.72254 6.38572 2.94421V1.47277C6.38572 0.693732 5.75742 0.0654297 4.97838 0.0654297C4.20145 0.0654297 3.57245 0.693732 3.57245 1.47277V2.94421C3.57245 3.72254 4.20145 4.34873 4.97838 4.34873Z" fill="white" fill-opacity="0.5"/>
<path d="M9.39983 9.03589H7.14935V11.0229H9.39983V9.03589Z" fill="white" fill-opacity="0.5"/>
<path d="M5.87792 9.03589H3.62744V11.0229H5.87792V9.03589Z" fill="white" fill-opacity="0.5"/>
<path d="M13.0428 9.03589H10.7895V11.0229H13.0428V9.03589Z" fill="white" fill-opacity="0.5"/>
<path d="M16.416 9.03589H14.1655V11.0229H16.416V9.03589Z" fill="white" fill-opacity="0.5"/>
<path d="M9.39983 12.3356H7.14935V14.3212H9.39983V12.3356Z" fill="white" fill-opacity="0.5"/>
<path d="M13.0428 12.3356H10.7895V14.3212H13.0428V12.3356Z" fill="white" fill-opacity="0.5"/>
<path d="M16.416 12.3356H14.1655V14.3212H16.416V12.3356Z" fill="white" fill-opacity="0.5"/>
<path d="M9.39983 15.7013H7.14935V17.6869H9.39983V15.7013Z" fill="white" fill-opacity="0.5"/>
<path d="M5.82152 12.3356H3.57245V14.3212H5.82152V12.3356Z" fill="white" fill-opacity="0.5"/>
<path d="M5.82152 15.7013H3.57245V17.6869H5.82152V15.7013Z" fill="white" fill-opacity="0.5"/>
<path d="M13.0428 15.7013H10.7895V17.6869H13.0428V15.7013Z" fill="white" fill-opacity="0.5"/>
<path d="M16.416 15.7013H14.1655V17.6869H16.416V15.7013Z" fill="white" fill-opacity="0.5"/>
</svg>

<svg width="20" height="21" fill="none" xmlns="http://www.w3.org/2000/svg"><path d="M14.98 4.349c.778 0 1.408-.626 1.408-1.405V1.473a1.407 1.407 0 1 0-2.815 0v1.471c0 .779.629 1.405 1.406 1.405z" fill="#fff" fill-opacity=".5"/><path d="M19.98 2.5h-2.833v.717a2.144 2.144 0 0 1-4.285 0v-.716H7.144v.716c0 1.18-.96 2.143-2.143 2.143A2.145 2.145 0 0 1 2.86 3.216v-.715L0 2.465v17.892h18.574L20 20.353l-.02-17.852zm-1.406 16.432H1.429V7.502h17.145v11.43z" fill="#fff" fill-opacity=".5"/><path d="M4.978 4.349c.779 0 1.408-.626 1.408-1.405V1.473a1.406 1.406 0 1 0-2.814 0v1.471c0 .779.63 1.405 1.406 1.405zM9.4 9.036H7.15v1.987H9.4V9.036zm-3.522 0h-2.25v1.987h2.25V9.036zm7.165 0H10.79v1.987h2.253V9.036zm3.373 0h-2.25v1.987h2.25V9.036zm-7.016 3.3H7.15v1.985H9.4v-1.985zm3.643 0H10.79v1.985h2.253v-1.985zm3.373 0h-2.25v1.985h2.25v-1.985zM9.4 15.701H7.15v1.986H9.4V15.7zm-3.578-3.365h-2.25v1.985h2.25v-1.985zm0 3.365h-2.25v1.986h2.25V15.7zm7.221 0H10.79v1.986h2.253V15.7zm3.373 0h-2.25v1.986h2.25V15.7z" fill="#fff" fill-opacity=".5"/></svg>
